assets/chat-bubble.svg

<svg fill="none" height="24" viewBox="0 0 29 24" width="29" xmlns="http://www.w3.org/2000/svg" xmlns:xlink="http://www.w3.org/1999/xlink"><filter id="a" color-interpolation-filters="sRGB" filterUnits="userSpaceOnUse" height="29" width="29" x="0" y="-4"><feFlood flood-opacity="0" result="BackgroundImageFix"/><feBlend in="SourceGraphic" in2="BackgroundImageFix" mode="normal" result="shape"/><feColorMatrix in="SourceAlpha" result="hardAlpha" type="matrix" values="0 0 0 0 0 0 0 0 0 0 0 0 0 0 0 0 0 0 127 0"/><feOffset dy="-4"/><feGaussianBlur stdDeviation="2"/><feComposite in2="hardAlpha" k2="-1" k3="1" operator="arithmetic"/><feColorMatrix type="matrix" values="0 0 0 0 1 0 0 0 0 1 0 0 0 0 1 0 0 0 0.5 0"/><feBlend in2="shape" mode="overlay" result="effect1_innerShadow_2175_1855"/><feColorMatrix in="SourceAlpha" result="hardAlpha" type="matrix" values="0 0 0 0 0 0 0 0 0 0 0 0 0 0 0 0 0 0 127 0"/><feOffset dy="2"/><feGaussianBlur stdDeviation=".5"/><feComposite in2="hardAlpha" k2="-1" k3="1" operator="arithmetic"/><feColorMatrix type="matrix" values="0 0 0 0 1 0 0 0 0 1 0 0 0 0 1 0 0 0 0.45 0"/><feBlend in2="effect1_innerShadow_2175_1855" mode="overlay" result="effect2_innerShadow_2175_1855"/></filter><clipPath id="b"><path d="m0 0h29v24h-29z"/></clipPath><mask id="c" fill="#fff"><path d="m21 0c4.4182.00005644 8 3.58176 8 8v8c0 4.4182-3.5818 7.9999-8 8h-8c-1.8182 0-3.49434-.6071-4.83789-1.6289-1.28034 1.0179-2.89942 1.6288-4.66211 1.6289-1.19951 0-2.33267-.2831-3.337891-.7842-.2520623-.1257-.1956654-.4922.071289-.582 2.770512-.9321 4.766422-3.5491 4.766602-6.6338v-8c0-4.41828 3.58172-8 8-8z" fill="#fff"/></mask><g clip-path="url(#b)"><g filter="url(#a)"><path d="m21 0c4.4182.00005644 8 3.58176 8 8v8c0 4.4182-3.5818 7.9999-8 8h-8c-1.8182 0-3.49434-.6071-4.83789-1.6289-1.28034 1.0179-2.89942 1.6288-4.66211 1.6289-1.19951 0-2.33267-.2831-3.337891-.7842-.2520623-.1257-.1956654-.4922.071289-.582 2.770512-.9321 4.766422-3.5491 4.766602-6.6338v-8c0-4.41828 3.58172-8 8-8z" fill="#0d99ff"/></g><path d="m21 0v-1zm8 8h1zm-8 16v1zm-12.83789-1.6289.60534-.796-.61897-.4707-.60869.4839zm-4.66211 1.6289-.00003 1h.00007zm-3.337891-.7842-.446203.895h.000047zm.071289-.582.318852.9478h.000028zm4.766602-6.6338 1 .0001v-.0001zm16-16v1c3.866.00005 7 3.13405 7 7h1 1c0-4.97054-4.0295-8.999937-9-9zm8 8h-1v8h1 1v-8zm0 8h-1c0 3.8659-3.134 7-7 7v1 1c4.9705-.0001 9-4.0295 9-9zm-8 8v-1h-8v1 1h8zm-8 0v-1c-1.5918 0-3.05677-.5307-4.23255-1.4249l-.60534.796-.60534.796c1.51131 1.1493 3.39863 1.8329 5.44323 1.8329zm-4.83789-1.6289-.62232-.7828c-1.11086.8832-2.51248 1.4116-4.03983 1.4117l.00004 1 .00004 1c1.99802-.0001 3.83457-.6935 5.28439-1.8461zm-4.66211 1.6289.00003-1c-1.04051 0-2.02134-.2452-2.891765-.6791l-.446156.8949-.446156.895c1.140021.5683 2.425507.8892 3.784017.8892zm-3.337891-.7842.446204-.8949c.306425.1528.419237.476.385871.7239-.030839.2291-.187114.4511-.441934.5368l-.318852-.9478-.3188508-.9478c-.5217752.1755-.8397252.6257-.9024862 1.0919-.065291.4851.145357 1.0544.703845 1.3329zm.071289-.582.31888.9478c3.164822-1.0648 5.447522-4.0543 5.447722-7.5815l-1-.0001-1-.0001c-.00015 2.6421-1.70927 4.8866-4.0854808 5.6861zm4.766602-6.6338h1v-8h-1-1v8zm0-8h1c0-3.86599 3.13401-7 7-7v-1-1c-4.97056 0-9 4.02944-9 9zm8-8v1h8v-1-1h-8z" fill="#024aff" fill-opacity=".6" mask="url(#c)"/></g></svg>

<svg width="29" height="24" viewBox="0 0 29 24" fill="none" xmlns="http://www.w3.org/2000/svg">
<g clip-path="url(#clip0_2175_1855)">
<mask id="path-1-inside-1_2175_1855" fill="white">
<path d="M21 0C25.4182 5.64362e-05 29 3.58176 29 8V16C29 20.4182 25.4182 23.9999 21 24H13C11.1818 24 9.50566 23.3929 8.16211 22.3711C6.88177 23.389 5.26269 23.9999 3.5 24C2.30049 24 1.16733 23.7169 0.162109 23.2158C-0.0899533 23.0901 -0.0335564 22.7236 0.233398 22.6338C3.00391 21.7017 4.99982 19.0847 5 16V8C5 3.58172 8.58172 0 13 0H21Z"/>
</mask>
<g filter="url(#filter0_ii_2175_1855)">
<path d="M21 0C25.4182 5.64362e-05 29 3.58176 29 8V16C29 20.4182 25.4182 23.9999 21 24H13C11.1818 24 9.50566 23.3929 8.16211 22.3711C6.88177 23.389 5.26269 23.9999 3.5 24C2.30049 24 1.16733 23.7169 0.162109 23.2158C-0.0899533 23.0901 -0.0335564 22.7236 0.233398 22.6338C3.00391 21.7017 4.99982 19.0847 5 16V8C5 3.58172 8.58172 0 13 0H21Z" fill="#0D99FF"/>
</g>
<path d="M21 0L21 -1H21V0ZM29 8L30 8V8L29 8ZM21 24L21 25L21 25L21 24ZM8.16211 22.3711L8.76745 21.5751L8.14848 21.1044L7.53979 21.5883L8.16211 22.3711ZM3.5 24L3.49997 25L3.50004 25L3.5 24ZM0.162109 23.2158L-0.284094 24.1108L-0.284047 24.1108L0.162109 23.2158ZM0.233398 22.6338L0.55225 23.5816L0.552278 23.5816L0.233398 22.6338ZM5 16L6 16.0001V16H5ZM21 0L21 1C24.866 1.00005 28 4.13405 28 8L29 8L30 8C30 3.02946 25.9705 -0.999937 21 -1L21 0ZM29 8H28V16H29H30V8H29ZM29 16H28C28 19.8659 24.866 23 21 23L21 24L21 25C25.9705 24.9999 30 20.9705 30 16H29ZM21 24V23H13V24V25H21V24ZM13 24V23C11.4082 23 9.94323 22.4693 8.76745 21.5751L8.16211 22.3711L7.55677 23.1671C9.06808 24.3164 10.9554 25 13 25V24ZM8.16211 22.3711L7.53979 21.5883C6.42893 22.4715 5.02731 22.9999 3.49996 23L3.5 24L3.50004 25C5.49806 24.9999 7.33461 24.3065 8.78443 23.1539L8.16211 22.3711ZM3.5 24L3.50003 23C2.45952 23 1.47869 22.7548 0.608265 22.3209L0.162109 23.2158L-0.284047 24.1108C0.855974 24.6791 2.14146 25 3.49997 25L3.5 24ZM0.162109 23.2158L0.608313 22.3209C0.914738 22.4737 1.02755 22.7969 0.994184 23.0448C0.963345 23.2739 0.80707 23.4959 0.55225 23.5816L0.233398 22.6338L-0.0854528 21.686C-0.607228 21.8615 -0.925178 22.3117 -0.987939 22.7779C-1.05323 23.263 -0.842582 23.8323 -0.284094 24.1108L0.162109 23.2158ZM0.233398 22.6338L0.552278 23.5816C3.7171 22.5168 5.9998 19.5273 6 16.0001L5 16L4 15.9999C3.99985 18.642 2.29073 20.8865 -0.0854808 21.686L0.233398 22.6338ZM5 16H6V8H5H4V16H5ZM5 8H6C6 4.13401 9.13401 1 13 1V0V-1C8.02944 -1 4 3.02944 4 8H5ZM13 0V1H21V0V-1H13V0Z" fill="#024AFF" fill-opacity="0.6" mask="url(#path-1-inside-1_2175_1855)"/>
</g>
<defs>
<filter id="filter0_ii_2175_1855" x="0" y="-4" width="29" height="29" filterUnits="userSpaceOnUse" color-interpolation-filters="sRGB">
<feFlood flood-opacity="0" result="BackgroundImageFix"/>
<feBlend mode="normal" in="SourceGraphic" in2="BackgroundImageFix" result="shape"/>
<feColorMatrix in="SourceAlpha" type="matrix" values="0 0 0 0 0 0 0 0 0 0 0 0 0 0 0 0 0 0 127 0" result="hardAlpha"/>
<feOffset dy="-4"/>
<feGaussianBlur stdDeviation="2"/>
<feComposite in2="hardAlpha" operator="arithmetic" k2="-1" k3="1"/>
<feColorMatrix type="matrix" values="0 0 0 0 1 0 0 0 0 1 0 0 0 0 1 0 0 0 0.5 0"/>
<feBlend mode="overlay" in2="shape" result="effect1_innerShadow_2175_1855"/>
<feColorMatrix in="SourceAlpha" type="matrix" values="0 0 0 0 0 0 0 0 0 0 0 0 0 0 0 0 0 0 127 0" result="hardAlpha"/>
<feOffset dy="2"/>
<feGaussianBlur stdDeviation="0.5"/>
<feComposite in2="hardAlpha" operator="arithmetic" k2="-1" k3="1"/>
<feColorMatrix type="matrix" values="0 0 0 0 1 0 0 0 0 1 0 0 0 0 1 0 0 0 0.45 0"/>
<feBlend mode="overlay" in2="effect1_innerShadow_2175_1855" result="effect2_innerShadow_2175_1855"/>
</filter>
<clipPath id="clip0_2175_1855">
<rect width="29" height="24" fill="white"/>
</clipPath>
</defs>
</svg>
